X:5
T:Paddy Fahey's #20
D:Éamonn Coyne & Kris Drever: Honk Toot Suite (2006)
R:reel
M:2/2
K:D
|: dBAG EFGE | AAAB cdec | dcAB cdef | ggfe dfec |
   dBAG EFGE | AAAB cded | dcAB cded | cAGE DBB/B/c :| 
|: ddfa gefe | dBAG EFGE | Addd bdad | gfed Adce | 
   defa gefe | dcAB =cBcd | eaaa eggg | aged cABc :| 

